Flat-Remix-Dark/apps/scalable/dribble.svg

<svg xmlns="http://www.w3.org/2000/svg" width="384pt" height="384pt" version="1.1" viewBox="0 0 384 384">
 <g style="fill:#b8174c" transform="matrix(0.96175253,0,0,0.96175252,8.233885,6.7912581)">
  <path style="fill:#b8174c" d="m 365.329,192.61869 c -0.0124,96.23118 -78.02774,174.22996 -174.25478,174.22996 -96.231181,0 -174.24237,-77.99878 -174.254785,-174.22996 C 16.802883,96.370962 94.826486,18.334944 191.07422,18.334944 c 96.24773,0 174.27133,78.036018 174.25478,174.283746 z m 0,0"/>
  <path style="opacity:0.3" d="m 191.07422,17.113281 c -96.902345,0 -175.460939,78.558594 -175.460939,175.460939 0,96.90234 78.558594,175.46094 175.460939,175.46094 96.90234,0 175.46094,-78.5586 175.46094,-175.46094 0,-96.902345 -78.5586,-175.460939 -175.46094,-175.460939 z m 0,27.417969 c 37.4414,0 71.59765,13.914062 97.66797,36.839844 -19.1836,23.398436 -45.88282,40.402346 -77.27735,52.601566 C 194.5,102.03125 175.78906,73.277344 156.63281,48.640625 c 11.0586,-2.636719 22.57422,-4.109375 34.44141,-4.109375 z m -63.05469,14.046875 c 18.11719,24.503906 36.96484,52.585935 54.66016,84.820315 -41.21094,11.54687 -88.281252,16.86328 -136.394534,18.5039 9.660156,-45.82421 40.414063,-83.855465 81.734374,-103.324215 z m 177.6875,40.097656 c 20.55859,25.078129 32.96875,57.160159 33.41016,92.011719 -35.98438,-6.64453 -70.45313,-8.91016 -102.98047,-4.45313 -4.21094,-10.03125 -8.4336,-19.7539 -13.01953,-29.30078 31.08203,-13.10937 59.39062,-31.78906 82.58984,-58.257809 z M 195.01562,167.04297 c 4.04688,8.16015 7.9961,16.53125 11.82422,25.1875 -47.3789,13.28906 -89.82031,43.67578 -126.113278,99.03906 C 57.269531,265.07422 43.03125,230.50391 43.03125,192.57422 c 0,-1.51172 0.125,-2.95703 0.167969,-4.45703 48.667969,-1.41797 102.351561,-5.6875 151.816401,-21.07422 z m 74.02344,40.4375 c 21.34375,-0.84766 44.15235,1.76172 68.19531,8.73828 -6.55468,40.92187 -29.89453,76.07812 -62.71484,98.52734 -6.71484,-36.76172 -16.64844,-71.92968 -28.95703,-104.86718 7.61719,-1.20704 15.4375,-2.07813 23.47656,-2.39844 z m -52.08984,9.08203 c 13.23047,33.73828 24.4375,70.95312 32.21094,112.23437 -17.84375,7.6211 -37.45704,11.82032 -58.08594,11.82032 -34.44922,0 -66.17578,-11.79297 -91.328126,-31.52735 20.519536,-34.86718 61.496096,-74.89453 117.203126,-92.52734 z m 0,0"/>
 </g>
</svg>

<svg xmlns="http://www.w3.org/2000/svg" width="384pt" height="384pt" version="1.1" viewBox="0 0 384 384">
 <g>
  <path style="fill:rgb(91.372549%,55.686275%,74.901961%)" d="M 355.566406 192.617188 C 355.554688 283.457031 281.910156 357.085938 191.074219 357.085938 C 100.234375 357.085938 26.59375 283.457031 26.582031 192.617188 C 26.566406 101.761719 100.21875 28.097656 191.074219 28.097656 C 281.929688 28.097656 355.582031 101.761719 355.566406 192.617188 Z M 355.566406 192.617188"/>
  <path style="fill:rgb(77.647059%,21.568627%,42.745098%)" d="M 191.074219 17.113281 C 94.171875 17.113281 15.613281 95.671875 15.613281 192.574219 C 15.613281 289.476562 94.171875 368.035156 191.074219 368.035156 C 287.976562 368.035156 366.535156 289.476562 366.535156 192.574219 C 366.535156 95.671875 287.976562 17.113281 191.074219 17.113281 Z M 191.074219 44.53125 C 228.515625 44.53125 262.671875 58.445312 288.742188 81.371094 C 269.558594 104.769531 242.859375 121.773438 211.464844 133.972656 C 194.5 102.03125 175.789062 73.277344 156.632812 48.640625 C 167.691406 46.003906 179.207031 44.53125 191.074219 44.53125 Z M 128.019531 58.578125 C 146.136719 83.082031 164.984375 111.164062 182.679688 143.398438 C 141.46875 154.945312 94.398438 160.261719 46.285156 161.902344 C 55.945312 116.078125 86.699219 78.046875 128.019531 58.578125 Z M 305.707031 98.675781 C 326.265625 123.753906 338.675781 155.835938 339.117188 190.6875 C 303.132812 184.042969 268.664062 181.777344 236.136719 186.234375 C 231.925781 176.203125 227.703125 166.480469 223.117188 156.933594 C 254.199219 143.824219 282.507812 125.144531 305.707031 98.675781 Z M 195.015625 167.042969 C 199.0625 175.203125 203.011719 183.574219 206.839844 192.230469 C 159.460938 205.519531 117.019531 235.90625 80.726562 291.269531 C 57.269531 265.074219 43.03125 230.503906 43.03125 192.574219 C 43.03125 191.0625 43.15625 189.617188 43.199219 188.117188 C 91.867188 186.699219 145.550781 182.429688 195.015625 167.042969 Z M 269.039062 207.480469 C 290.382812 206.632812 313.191406 209.242188 337.234375 216.21875 C 330.679688 257.140625 307.339844 292.296875 274.519531 314.746094 C 267.804688 277.984375 257.871094 242.816406 245.5625 209.878906 C 253.179688 208.671875 261 207.800781 269.039062 207.480469 Z M 216.949219 216.5625 C 230.179688 250.300781 241.386719 287.515625 249.160156 328.796875 C 231.316406 336.417969 211.703125 340.617188 191.074219 340.617188 C 156.625 340.617188 124.898438 328.824219 99.746094 309.089844 C 120.265625 274.222656 161.242188 234.195312 216.949219 216.5625 Z M 216.949219 216.5625"/>
 </g>
</svg>
